flaticon/gastronomy/glass.svg

<svg xmlns="http://www.w3.org/2000/svg" width="32" height="32" viewBox="0 0 24 24">
    <path d="M 20.007812 1.351562 C 20.007812 0.945312 20.007812 0 12 0 C 3.992188 0 3.992188 0.945312 3.992188 1.347656 C 3.984375 2.101562 3.851562 19.886719 7.265625 23.335938 C 7.703125 23.777344 8.1875 24 8.710938 24 L 15.285156 24 C 15.816406 24 16.304688 23.777344 16.742188 23.332031 C 20.164062 19.871094 20.015625 2.101562 20.007812 1.351562 Z M 4.933594 1.511719 C 6.390625 0.738281 17.609375 0.738281 19.066406 1.511719 C 19.082031 3.242188 19.039062 5.902344 18.882812 8.773438 C 18.320312 9.324219 17.882812 9.585938 17.503906 9.589844 C 17.5 9.589844 17.5 9.589844 17.496094 9.589844 C 17.113281 9.589844 16.675781 9.328125 16.117188 8.769531 L 15.785156 8.4375 L 15.453125 8.769531 C 14.882812 9.339844 14.382812 9.621094 13.933594 9.625 C 13.929688 9.625 13.925781 9.625 13.921875 9.625 C 13.476562 9.625 12.992188 9.355469 12.441406 8.804688 L 12.109375 8.472656 L 11.777344 8.804688 C 10.652344 9.929688 9.863281 9.9375 8.765625 8.839844 L 8.433594 8.507812 L 8.101562 8.839844 C 7.550781 9.390625 7.066406 9.652344 6.609375 9.625 C 6.171875 9.605469 5.6875 9.324219 5.125 8.769531 C 4.964844 5.902344 4.917969 3.242188 4.933594 1.511719 Z M 16.074219 22.671875 C 15.816406 22.933594 15.558594 23.058594 15.285156 23.058594 L 8.710938 23.058594 C 8.445312 23.058594 8.191406 22.933594 7.933594 22.675781 C 6.347656 21.074219 5.566406 15.398438 5.203125 10.0625 C 5.667969 10.378906 6.109375 10.542969 6.5625 10.566406 C 7.183594 10.59375 7.800781 10.347656 8.429688 9.8125 C 9.050781 10.339844 9.644531 10.597656 10.246094 10.597656 C 10.253906 10.597656 10.257812 10.597656 10.265625 10.597656 C 10.871094 10.59375 11.476562 10.324219 12.109375 9.78125 C 12.730469 10.3125 13.355469 10.5625 13.941406 10.566406 C 14.546875 10.558594 15.152344 10.289062 15.78125 9.746094 C 16.398438 10.285156 16.9375 10.53125 17.492188 10.53125 C 17.5 10.53125 17.507812 10.53125 17.511719 10.53125 C 17.9375 10.527344 18.351562 10.378906 18.800781 10.070312 C 18.445312 15.398438 17.664062 21.066406 16.074219 22.671875 Z M 16.074219 22.671875"/>
    <path d="M14 12.835938C14 13.09375 13.792969 13.304688 13.53125 13.304688 13.269531 13.304688 13.0625 13.09375 13.0625 12.835938 13.0625 12.574219 13.269531 12.363281 13.53125 12.363281 13.792969 12.363281 14 12.574219 14 12.835938zM14.941406 15.1875C14.941406 15.449219 14.730469 15.660156 14.472656 15.660156 14.210938 15.660156 14 15.449219 14 15.1875 14 14.929688 14.210938 14.71875 14.472656 14.71875 14.730469 14.71875 14.941406 14.929688 14.941406 15.1875zM16.355469 17.539062C16.355469 17.800781 16.144531 18.011719 15.882812 18.011719 15.625 18.011719 15.414062 17.800781 15.414062 17.539062 15.414062 17.28125 15.625 17.070312 15.882812 17.070312 16.144531 17.070312 16.355469 17.28125 16.355469 17.539062zM12.589844 16.128906C12.589844 16.390625 12.378906 16.597656 12.121094 16.597656 11.859375 16.597656 11.648438 16.390625 11.648438 16.128906 11.648438 15.867188 11.859375 15.660156 12.121094 15.660156 12.378906 15.660156 12.589844 15.867188 12.589844 16.128906zM15.882812 12.363281C15.882812 12.625 15.671875 12.835938 15.414062 12.835938 15.152344 12.835938 14.941406 12.625 14.941406 12.363281 14.941406 12.105469 15.152344 11.894531 15.414062 11.894531 15.671875 11.894531 15.882812 12.105469 15.882812 12.363281zM8.738281 16.644531C9.097656 16.644531 9.4375 16.507812 9.699219 16.261719L10.730469 15.300781C11.300781 14.769531 11.332031 13.875 10.800781 13.304688L9.835938 12.273438C9.304688 11.703125 8.410156 11.675781 7.839844 12.207031L6.808594 13.167969C6.535156 13.425781 6.375 13.777344 6.363281 14.152344 6.351562 14.53125 6.484375 14.890625 6.742188 15.164062L7.703125 16.195312C7.960938 16.46875 8.3125 16.628906 8.6875 16.640625 8.703125 16.644531 8.722656 16.644531 8.738281 16.644531zM7.429688 14.523438C7.34375 14.429688 7.296875 14.3125 7.304688 14.183594 7.308594 14.058594 7.359375 13.941406 7.449219 13.855469L8.480469 12.894531C8.574219 12.808594 8.6875 12.765625 8.804688 12.765625 8.929688 12.765625 9.054688 12.816406 9.148438 12.914062L10.113281 13.945312C10.289062 14.136719 10.277344 14.433594 10.089844 14.613281L9.058594 15.578125C8.964844 15.664062 8.847656 15.699219 8.71875 15.703125 8.59375 15.699219 8.476562 15.644531 8.390625 15.554688zM14.070312 18.5C13.539062 17.933594 12.644531 17.902344 12.074219 18.433594L11.042969 19.398438C10.769531 19.652344 10.609375 20.003906 10.597656 20.382812 10.585938 20.757812 10.71875 21.117188 10.976562 21.394531L11.941406 22.425781C12.21875 22.722656 12.59375 22.871094 12.972656 22.871094 13.316406 22.871094 13.664062 22.746094 13.933594 22.492188L14.964844 21.527344C15.242188 21.269531 15.398438 20.921875 15.414062 20.542969 15.425781 20.167969 15.289062 19.808594 15.035156 19.53125zM14.324219 20.839844L13.292969 21.804688C13.101562 21.980469 12.804688 21.972656 12.628906 21.78125L11.664062 20.75C11.578125 20.660156 11.535156 20.539062 11.539062 20.414062 11.542969 20.285156 11.59375 20.171875 11.6875 20.085938L12.71875 19.121094C12.808594 19.039062 12.921875 18.996094 13.039062 18.996094 13.164062 18.996094 13.289062 19.046875 13.382812 19.144531L14.347656 20.175781C14.523438 20.363281 14.515625 20.664062 14.324219 20.839844zM8.824219 18.996094C8.824219 19.257812 8.613281 19.46875 8.355469 19.46875 8.09375 19.46875 7.882812 19.257812 7.882812 18.996094 7.882812 18.738281 8.09375 18.527344 8.355469 18.527344 8.613281 18.527344 8.824219 18.738281 8.824219 18.996094zM9.765625 21.820312C9.765625 22.078125 9.554688 22.289062 9.296875 22.289062 9.035156 22.289062 8.824219 22.078125 8.824219 21.820312 8.824219 21.558594 9.035156 21.347656 9.296875 21.347656 9.554688 21.347656 9.765625 21.558594 9.765625 21.820312zM9.765625 21.820312"/>
</svg>

<svg xmlns="http://www.w3.org/2000/svg" width="32" height="32" viewBox="0 0 24 24">
    <path d="M20.008 1.352C20.008.945 20.008 0 12 0S3.992.945 3.992 1.348c-.008.754-.14 18.539 3.274 21.988.437.441.921.664 1.445.664h6.574c.531 0 1.02-.223 1.457-.668 3.422-3.46 3.274-21.23 3.266-21.98zm-15.074.16c1.457-.774 12.675-.774 14.132 0 .016 1.73-.027 4.39-.183 7.261-.563.551-1 .813-1.38.817h-.007c-.383 0-.82-.262-1.379-.82l-.332-.332-.332.332c-.57.57-1.07.851-1.52.855h-.011c-.445 0-.93-.27-1.48-.82l-.333-.332-.332.332c-1.125 1.125-1.914 1.133-3.011.035l-.332-.332-.332.332c-.551.55-1.036.812-1.493.785-.437-.02-.921-.3-1.484-.855-.16-2.868-.207-5.528-.191-7.258zm11.14 21.16c-.258.262-.515.387-.789.387H8.711c-.266 0-.52-.125-.777-.383-1.586-1.602-2.368-7.278-2.73-12.613.464.316.905.48 1.359.503.62.028 1.238-.218 1.867-.754.62.528 1.215.786 1.816.786h.02c.605-.004 1.21-.274 1.843-.817.621.531 1.246.781 1.832.785.606-.007 1.211-.277 1.84-.82.617.54 1.156.785 1.711.785h.02c.425-.004.84-.152 1.289-.46-.356 5.327-1.137 10.995-2.727 12.6zm0 0"/>
    <path d="M14 12.836a.468.468 0 1 1-.938 0 .468.468 0 1 1 .938 0zm0 0M14.941 15.188a.471.471 0 1 1-.942.003.471.471 0 0 1 .942-.004zm0 0M16.355 17.54a.472.472 0 1 1-.94 0 .47.47 0 0 1 .94 0zm0 0M12.59 16.129c0 .262-.211.469-.469.469a.468.468 0 1 1 0-.938c.258 0 .469.207.469.469zm0 0M15.883 12.363a.471.471 0 1 1-.942.004.471.471 0 0 1 .942-.004zm0 0M8.738 16.645c.36 0 .7-.137.961-.383l1.031-.961c.57-.531.602-1.426.07-1.996l-.964-1.032a1.413 1.413 0 0 0-1.996-.066l-1.031.961a1.41 1.41 0 0 0-.446.984c-.011.38.121.739.38 1.012l.96 1.031c.258.274.61.434.984.446.016.004.036.004.051.004zM7.43 14.523a.455.455 0 0 1-.125-.34.472.472 0 0 1 .144-.328l1.031-.96a.475.475 0 0 1 .668.02l.965 1.03a.478.478 0 0 1-.023.668l-1.031.965a.507.507 0 0 1-.34.125.476.476 0 0 1-.328-.148zm0 0M14.07 18.5a1.416 1.416 0 0 0-1.996-.066l-1.031.964a1.396 1.396 0 0 0-.445.985 1.41 1.41 0 0 0 .379 1.012l.964 1.03c.278.298.653.446 1.032.446a1.4 1.4 0 0 0 .96-.379l1.032-.965a1.407 1.407 0 0 0 .07-1.996zm.254 2.34l-1.031.965a.47.47 0 0 1-.664-.024l-.965-1.031a.462.462 0 0 1-.125-.336.453.453 0 0 1 .149-.328l1.03-.965a.472.472 0 0 1 .665.024l.965 1.03a.47.47 0 0 1-.024.665zm0 0M8.824 18.996a.471.471 0 1 1-.942.003.471.471 0 0 1 .942-.003zm0 0M9.766 21.82a.47.47 0 1 1-.94-.002.47.47 0 0 1 .94.002zm0 0"/>
</svg>
